X: 31056
T: Paddy Cronin's
R: slide
M: 12/8
K: Dmajor
D2F FED E2F G2A|1 B2E GFE F2E D3:|2 B2E GFE F2E D2d||
|:ded c2d e2d cBA|B2E GFE B2E GFE|
ded c2d e2d cBA|1 B2E GFE F2E D2d:|2 B2E GFE F2E D3||

